ix/simcard-2_bulk.svg

<svg viewBox="0 0 24 24" fill="none" xmlns="http://www.w3.org/2000/svg" height="1em" width="1em">
  <path opacity="0.4" d="M16 12.6899V18.0799C16 20.4199 14.44 21.9699 12.11 21.9699H5.89C3.56 21.9699 2 20.4199 2 18.0799V10.3099C2 7.96992 3.56 6.41992 5.89 6.41992H9.72C10.75 6.41992 11.74 6.82992 12.47 7.55992L14.86 9.93992C15.59 10.6699 16 11.6599 16 12.6899Z" fill="#292D32"/>
  <path d="M22 8.24997V13.64C22 15.97 20.44 17.53 18.11 17.53H16V12.69C16 11.66 15.59 10.67 14.86 9.93997L12.47 7.55997C11.74 6.82997 10.75 6.41997 9.72 6.41997H8V5.85997C8 3.52997 9.56 1.96997 11.89 1.96997H15.72C16.75 1.96997 17.74 2.37997 18.47 3.10997L20.86 5.49997C21.59 6.22997 22 7.21997 22 8.24997Z" fill="#292D32"/>
</svg>

<svg viewBox="0 0 24 24" fill="none" xmlns="http://www.w3.org/2000/svg" height="1em" width="1em">
  <path opacity=".4" d="M16 12.69v5.39c0 2.34-1.56 3.89-3.89 3.89H5.89C3.56 21.97 2 20.42 2 18.08v-7.77c0-2.34 1.56-3.89 3.89-3.89h3.83c1.03 0 2.02.41 2.75 1.14l2.39 2.38A3.89 3.89 0 0 1 16 12.69Z" fill="#292D32"/>
  <path d="M22 8.25v5.39c0 2.33-1.56 3.89-3.89 3.89H16v-4.84c0-1.03-.41-2.02-1.14-2.75l-2.39-2.38a3.89 3.89 0 0 0-2.75-1.14H8v-.56c0-2.33 1.56-3.89 3.89-3.89h3.83c1.03 0 2.02.41 2.75 1.14l2.39 2.39A3.89 3.89 0 0 1 22 8.25Z" fill="#292D32"/>
</svg>
